X: 2
M: 3/4
L: 1/8
P: Hilma ja Juhani
K: Dm
A2 \
| "Dm"D2 D2 F2 | "Dm"A2 A2 F2 | "A7"G2 F2 E2 | "Dm"D3 zA2 \
|  "F"F2 F2 A2 |  "F"c2 c2 A2 | "C7"B2 A2 G2 | "F"A3 z |]
|: "A7"A2 \
| "Dm"d2 d2 A2 |  "F"c2 c2 A2 | "Gm"B2 A2     G2 | "A7"A3 zF2 \
| "Dm"D2 D2 F2 | "Dm"A2 A2 F2 | "Gm"G2 F2 "A7"E2 | "Dm"D3 z :|
